X:1
T:Title
%%score 1 { ( 2 4 ) | ( 3 5 ) }
L:1/8
M:6/8
K:Eb
V:1 treble nm="Akkordion"
V:2 bass nm="Grand Piano"
V:4 bass 
V:3 bass 
V:5 bass 
V:1
 z3 z2[Q:1/4=77] E/F/ | GGG FGF | E B2- B2 B/B/ | cAc eAc | B3- B2 E/F/ | GGG FGF | E B2- B2 B/B/ | %7
 =AGF edc |[M:5/8] B-B- B3 |[M:1/8] z |[M:3/4] z6 | z6 | z6 |[M:5/8] z5 |[M:1/8] z |[M:3/4] z6 | %16
[M:7/8] z7 |[M:3/4] z6 | z6 |] %19
V:2
 z6 | z EE z[K:treble] FF | z GG z GG | z[K:treble] AA[K:bass] z[K:treble] AA | z GG z GG | %5
 z EE z[K:treble] FF | z GG z GG | z =AA z AA |[M:5/8][K:bass] z BB[K:treble] B2 | %9
[M:1/8] [GB]/[GB]/ |[M:3/4] [Ge][Ge] [Ge] [GB]2 [Ac] | [GB]6 | [Ge][GB] c [EGB]2 [B,EG] | %13
[M:5/8] [B,EG]3 [B,DF]2 |[M:1/8] [A,DG]/[A,DF]/ |[M:3/4] [G,E]2 [EB] [Ee]2 [Ee] | %16
[M:7/8] [Ee]-[Ee]-[Ee]- [Ee]3 [Ee]/[Ee]/ |[M:3/4] z2 z F z2 | [A,DF]3 [G,E]3 |] %19
V:3
 z6 | z [G,B,][G,B,] z [A,D][A,D] | z [B,E][K:treble][B,E] z [B,E][B,E] | z [CE][CE] z [CE][CE] | %4
 z[K:bass] [B,E][B,E] z [B,E][B,E] | z [G,B,][G,B,] z[K:treble] [A,D][A,D] | %6
 z [B,E][B,E] z [B,E][B,E] | z [EF][EF] z [EF][EF] |[M:5/8] z [DF][DF] [DF]2 | %9
[M:1/8][K:bass] [E,B,]/[E,B,]/ |[M:3/4] [E,B,][E,B,] [E,B,] [E,E]2 [E,E] | %11
 [E,E]2 E, E,2 [E,E]/[E,E]/ | z .[E,E]3 z2 |[M:5/8] B,,3 B,,2 |[M:1/8] B,,/B,,/ | %15
[M:3/4] z G [E,G,] [E,G,]2 [E,G,] |[M:7/8] [=B,,_G,]-[B,,G,]-[B,,G,]- [B,,G,]3 [B,,G,]/[B,,G,]/ | %17
[M:3/4] z[K:treble] B[K:bass] .B,,2 AB,, | B,,3 E,3 |] %19
V:4
 x6 | E,3 B,,3[K:treble] | E,3 E,3 | A,,3[K:treble][K:bass] A,,3[K:treble] | E,3 E,3 | %5
 E,3 B,,3[K:treble] | E,3 E,3 | F,3 F,3 |[M:5/8][K:bass] B,,-B,,- B,,3[K:treble] |[M:1/8] x | %10
[M:3/4] x6 | z2 E E2 [GB]/[GB]/ | x6 |[M:5/8] x5 |[M:1/8] x |[M:3/4] x6 |[M:7/8] x7 | %17
[M:3/4] .[Ee]2 [B,EG] [B,D]2 [B,EG] | x6 |] %19
V:5
 x6 | x6 | x2[K:treble] x4 | x6 | x[K:bass] x5 | x4[K:treble] x2 | x6 | x6 |[M:5/8] x5 | %9
[M:1/8][K:bass] x |[M:3/4] x6 | x6 | .[E,B,]2 A E,2 E, |[M:5/8] x5 |[M:1/8] x |[M:3/4] E,2 z2 z2 | %16
[M:7/8] x7 |[M:3/4] [B,,G,]2[K:treble][K:bass] z .B,,3 | x6 |] %19

